X: 1
T: Farmers' Jamboree
M: 6/8
L: 1/8
R: jig
K: Gmaj
|: Bc |
ded cBA | G2 B D2 B | BAB dcB | A3 ABc |
ded cBA | G2 B D2 g | fed cBA | G3- G :|
|: Bc |
dBd g2 d | ece a2 g | fed cde | d3 dBc |
dBd g2 d | ece a2 g | fed cBA | G3- G :|
